build/img/logo-text-top.svg

<svg width="133" height="20" viewBox="0 0 133 20" fill="none" xmlns="http://www.w3.org/2000/svg">
<path d="M8.93555 14.3369C8.93555 13.6126 8.74837 13.0674 8.37402 12.7012C8.00781 12.3268 7.33643 11.9403 6.35986 11.5415C4.57764 10.866 3.2959 10.0767 2.51465 9.17334C1.7334 8.26188 1.34277 7.18766 1.34277 5.95068C1.34277 4.45329 1.87174 3.25293 2.92969 2.34961C3.99577 1.43815 5.34668 0.982422 6.98242 0.982422C8.07292 0.982422 9.04541 1.21436 9.8999 1.67822C10.7544 2.13395 11.4095 2.78092 11.8652 3.61914C12.3291 4.45736 12.561 5.40951 12.561 6.47559H8.98438C8.98438 5.64551 8.80534 5.01481 8.44727 4.5835C8.09733 4.14404 7.5887 3.92432 6.92139 3.92432C6.29476 3.92432 5.80648 4.11149 5.45654 4.48584C5.10661 4.85205 4.93164 5.34847 4.93164 5.9751C4.93164 6.46338 5.12695 6.9069 5.51758 7.30566C5.9082 7.69629 6.59993 8.10319 7.59277 8.52637C9.32617 9.15299 10.5835 9.92204 11.3647 10.8335C12.1541 11.745 12.5488 12.9046 12.5488 14.3125C12.5488 15.8587 12.0565 17.0672 11.0718 17.938C10.0871 18.8088 8.74837 19.2441 7.05566 19.2441C5.9082 19.2441 4.86247 19.0081 3.91846 18.5361C2.97445 18.0641 2.23389 17.3887 1.69678 16.5098C1.16781 15.6309 0.90332 14.5933 0.90332 13.397H4.50439C4.50439 14.4224 4.70378 15.167 5.10254 15.6309C5.5013 16.0947 6.15234 16.3267 7.05566 16.3267C8.30892 16.3267 8.93555 15.6634 8.93555 14.3369ZM18.0054 5.79199L18.103 7.0127C18.8761 6.03613 19.8975 5.54785 21.167 5.54785C22.4854 5.54785 23.4172 6.14193 23.9624 7.33008C24.7192 6.14193 25.7975 5.54785 27.1973 5.54785C29.5085 5.54785 30.6925 7.14697 30.7495 10.3452V19H27.2949V10.5649C27.2949 9.79997 27.1891 9.25472 26.9775 8.9292C26.766 8.60368 26.4079 8.44092 25.9033 8.44092C25.2604 8.44092 24.7803 8.83561 24.4629 9.625L24.4873 10.04V19H21.0327V10.5894C21.0327 9.83252 20.931 9.28727 20.7275 8.95361C20.5241 8.61182 20.1619 8.44092 19.6411 8.44092C19.047 8.44092 18.575 8.76237 18.2251 9.40527V19H14.7705V5.79199H18.0054ZM39.5874 19C39.4897 18.7965 39.3921 18.4548 39.2944 17.9746C38.6759 18.821 37.8377 19.2441 36.7798 19.2441C35.673 19.2441 34.7534 18.8779 34.021 18.1455C33.2967 17.4131 32.9346 16.465 32.9346 15.3013C32.9346 13.9178 33.374 12.8477 34.2529 12.0908C35.14 11.334 36.4136 10.9474 38.0737 10.9312H39.1235V9.86914C39.1235 9.27507 39.0218 8.85596 38.8184 8.61182C38.6149 8.36768 38.3179 8.24561 37.9272 8.24561C37.0646 8.24561 36.6333 8.75016 36.6333 9.75928H33.1787C33.1787 8.53857 33.6344 7.53353 34.5459 6.74414C35.4655 5.94661 36.6252 5.54785 38.0249 5.54785C39.4735 5.54785 40.5924 5.92627 41.3818 6.68311C42.1794 7.4318 42.5781 8.50602 42.5781 9.90576V16.1191C42.5944 17.2585 42.7572 18.1496 43.0664 18.7925V19H39.5874ZM37.5488 16.5342C37.9313 16.5342 38.2568 16.4569 38.5254 16.3022C38.7939 16.1476 38.9933 15.9645 39.1235 15.7529V13.0063H38.2935C37.7075 13.0063 37.2437 13.1935 36.9019 13.5679C36.5682 13.9422 36.4014 14.4427 36.4014 15.0693C36.4014 16.0459 36.7839 16.5342 37.5488 16.5342ZM51.5991 9.12451L50.4517 9.02686C49.5076 9.02686 48.8688 9.44189 48.5352 10.272V19H45.0684V5.79199H48.3276L48.4253 7.22021C48.9705 6.10531 49.7233 5.54785 50.6836 5.54785C51.0742 5.54785 51.3916 5.60075 51.6357 5.70654L51.5991 9.12451ZM58.0078 2.54492V5.79199H59.7778V8.39209H58.0078V14.9473C58.0078 15.4681 58.077 15.8262 58.2153 16.0215C58.3618 16.2168 58.6385 16.3145 59.0454 16.3145C59.3791 16.3145 59.6517 16.286 59.8633 16.229L59.8389 18.9146C59.2529 19.1343 58.6182 19.2441 57.9346 19.2441C55.7048 19.2441 54.5776 17.9665 54.5532 15.4111V8.39209H53.0273V5.79199H54.5532V2.54492H58.0078ZM67.6147 19V1.22656H72.3145C74.3896 1.22656 76.0417 1.88574 77.2705 3.2041C78.5075 4.52246 79.1382 6.3291 79.1626 8.62402V11.5049C79.1626 13.8405 78.5441 15.6756 77.3071 17.0103C76.0783 18.3368 74.3815 19 72.2168 19H67.6147ZM71.2036 4.21729V16.0215H72.2778C73.4741 16.0215 74.3164 15.7082 74.8047 15.0815C75.293 14.4468 75.5493 13.3563 75.5737 11.8101V8.72168C75.5737 7.06152 75.3418 5.90592 74.8779 5.25488C74.4141 4.5957 73.6247 4.24984 72.5098 4.21729H71.2036ZM86.9141 19.2441C85.14 19.2441 83.7565 18.7152 82.7637 17.6572C81.7708 16.5993 81.2744 15.0856 81.2744 13.1162V12.0664C81.2744 9.98307 81.7301 8.37581 82.6416 7.24463C83.5531 6.11344 84.8592 5.54785 86.5601 5.54785C88.2202 5.54785 89.4694 6.08089 90.3076 7.14697C91.1458 8.20492 91.5731 9.77555 91.5894 11.8589V13.5557H84.7168C84.7656 14.5322 84.9813 15.2484 85.3638 15.7041C85.7463 16.1517 86.3363 16.3755 87.1338 16.3755C88.2894 16.3755 89.2537 15.9808 90.0269 15.1914L91.3818 17.2788C90.9587 17.8647 90.3442 18.3408 89.5386 18.707C88.7329 19.0651 87.8581 19.2441 86.9141 19.2441ZM84.7412 11.1387H88.1958V10.8213C88.1795 10.0319 88.0493 9.43376 87.8052 9.02686C87.561 8.61995 87.1379 8.4165 86.5356 8.4165C85.9334 8.4165 85.494 8.63216 85.2173 9.06348C84.9487 9.49479 84.79 10.1865 84.7412 11.1387ZM97.7051 14.1172L99.3774 5.79199H102.979L99.353 19H96.0571L92.4194 5.79199H96.0327L97.7051 14.1172ZM108.228 19H104.761V5.79199H108.228V19ZM104.602 2.37402C104.602 1.83691 104.773 1.39746 105.115 1.05566C105.457 0.713867 105.912 0.542969 106.482 0.542969C107.052 0.542969 107.507 0.713867 107.849 1.05566C108.191 1.39746 108.362 1.83691 108.362 2.37402C108.362 2.90299 108.191 3.34245 107.849 3.69238C107.515 4.04232 107.06 4.21729 106.482 4.21729C105.904 4.21729 105.444 4.04232 105.103 3.69238C104.769 3.34245 104.602 2.90299 104.602 2.37402ZM115.674 16.3755C116.675 16.3755 117.183 15.7244 117.2 14.4224H120.447C120.431 15.8628 119.987 17.0265 119.116 17.9136C118.245 18.8006 117.122 19.2441 115.747 19.2441C114.046 19.2441 112.748 18.7152 111.853 17.6572C110.958 16.5993 110.502 15.0409 110.486 12.9819V11.9321C110.486 9.85693 110.925 8.27409 111.804 7.18359C112.691 6.0931 113.997 5.54785 115.723 5.54785C117.179 5.54785 118.327 5.99951 119.165 6.90283C120.003 7.79801 120.431 9.07161 120.447 10.7236H117.2C117.192 9.98307 117.069 9.41341 116.833 9.01465C116.597 8.61589 116.207 8.4165 115.662 8.4165C115.059 8.4165 114.628 8.63216 114.368 9.06348C114.107 9.48665 113.969 10.3127 113.953 11.5415V12.8843C113.953 13.9585 114.006 14.7113 114.111 15.1426C114.217 15.5658 114.392 15.8791 114.636 16.0825C114.88 16.2778 115.226 16.3755 115.674 16.3755ZM127.734 19.2441C125.96 19.2441 124.577 18.7152 123.584 17.6572C122.591 16.5993 122.095 15.0856 122.095 13.1162V12.0664C122.095 9.98307 122.55 8.37581 123.462 7.24463C124.373 6.11344 125.68 5.54785 127.38 5.54785C129.041 5.54785 130.29 6.08089 131.128 7.14697C131.966 8.20492 132.393 9.77555 132.41 11.8589V13.5557H125.537C125.586 14.5322 125.802 15.2484 126.184 15.7041C126.567 16.1517 127.157 16.3755 127.954 16.3755C129.11 16.3755 130.074 15.9808 130.847 15.1914L132.202 17.2788C131.779 17.8647 131.165 18.3408 130.359 18.707C129.553 19.0651 128.678 19.2441 127.734 19.2441ZM125.562 11.1387H129.016V10.8213C129 10.0319 128.87 9.43376 128.625 9.02686C128.381 8.61995 127.958 8.4165 127.356 8.4165C126.754 8.4165 126.314 8.63216 126.038 9.06348C125.769 9.49479 125.61 10.1865 125.562 11.1387Z" fill="white"/>
</svg>

<svg width="133" height="20" fill="none" xmlns="http://www.w3.org/2000/svg"><path d="M8.936 14.337c0-.724-.188-1.27-.562-1.636-.366-.374-1.038-.76-2.014-1.16-1.782-.675-3.064-1.464-3.845-2.368-.782-.911-1.172-1.985-1.172-3.222 0-1.498.529-2.698 1.587-3.601C3.996 1.438 5.347.982 6.982.982c1.09 0 2.063.232 2.918.696a4.708 4.708 0 011.965 1.941c.464.838.696 1.79.696 2.857H8.984c0-.83-.179-1.461-.537-1.893-.35-.439-.858-.659-1.526-.659-.626 0-1.115.187-1.464.562-.35.366-.525.862-.525 1.49 0 .487.195.93.586 1.33.39.39 1.082.797 2.075 1.22 1.733.627 2.99 1.396 3.772 2.308.79.911 1.184 2.07 1.184 3.479 0 1.546-.492 2.754-1.477 3.625-.985.87-2.324 1.306-4.016 1.306-1.148 0-2.194-.236-3.138-.708a5.35 5.35 0 01-2.221-2.026c-.53-.88-.794-1.917-.794-3.113h3.601c0 1.025.2 1.77.599 2.234.398.464 1.05.696 1.953.696 1.253 0 1.88-.664 1.88-1.99zm9.07-8.545l.097 1.22c.773-.976 1.794-1.464 3.064-1.464 1.318 0 2.25.594 2.795 1.782.757-1.188 1.835-1.782 3.235-1.782 2.312 0 3.495 1.599 3.553 4.797V19h-3.455v-8.435c0-.765-.106-1.31-.318-1.636-.211-.325-.57-.488-1.074-.488-.643 0-1.123.395-1.44 1.184l.024.415V19h-3.454v-8.41c0-.757-.102-1.303-.306-1.636-.203-.342-.565-.513-1.086-.513-.594 0-1.066.321-1.416.964V19H14.77V5.792h3.235zM39.586 19c-.097-.203-.195-.545-.293-1.025-.618.846-1.456 1.27-2.514 1.27-1.107 0-2.027-.367-2.759-1.1-.724-.732-1.086-1.68-1.086-2.844 0-1.383.439-2.453 1.318-3.21.887-.757 2.16-1.144 3.82-1.16h1.05V9.87c0-.594-.101-1.013-.305-1.257-.203-.244-.5-.366-.89-.366-.863 0-1.295.504-1.295 1.513H33.18c0-1.22.455-2.225 1.367-3.015.92-.797 2.08-1.196 3.479-1.196 1.449 0 2.567.378 3.357 1.135.797.749 1.196 1.823 1.196 3.223v6.213c.016 1.14.18 2.03.488 2.674V19h-3.479zm-2.038-2.466c.382 0 .708-.077.976-.232a1.64 1.64 0 00.599-.55v-2.746h-.83c-.586 0-1.05.188-1.392.562-.334.374-.5.875-.5 1.501 0 .977.382 1.465 1.147 1.465zm14.05-7.41l-1.147-.097c-.944 0-1.583.415-1.917 1.245V19h-3.467V5.792h3.26l.097 1.428c.546-1.115 1.298-1.672 2.259-1.672.39 0 .708.053.952.159l-.037 3.418zm6.409-6.58v3.248h1.77v2.6h-1.77v6.555c0 .521.069.88.207 1.075.147.195.423.293.83.293.334 0 .607-.029.818-.086l-.024 2.686c-.586.22-1.22.33-1.904.33-2.23 0-3.357-1.279-3.382-3.834V8.392h-1.526v-2.6h1.526V2.545h3.455zM67.615 19V1.227h4.7c2.075 0 3.727.659 4.956 1.977 1.236 1.318 1.867 3.125 1.892 5.42v2.88c0 2.337-.619 4.172-1.856 5.506-1.229 1.327-2.925 1.99-5.09 1.99h-4.602zm3.589-14.783v11.805h1.074c1.196 0 2.038-.314 2.527-.94.488-.635.744-1.726.769-3.272V8.722c0-1.66-.232-2.816-.696-3.467-.464-.66-1.253-1.005-2.368-1.038h-1.306zm15.71 15.027c-1.774 0-3.157-.529-4.15-1.587-.993-1.058-1.49-2.571-1.49-4.54v-1.05c0-2.084.456-3.691 1.368-4.822.911-1.132 2.217-1.697 3.918-1.697 1.66 0 2.91.533 3.748 1.599.838 1.058 1.265 2.629 1.281 4.712v1.697h-6.872c.049.976.264 1.692.647 2.148.382.448.972.671 1.77.671 1.155 0 2.12-.394 2.893-1.184l1.355 2.088c-.423.586-1.038 1.062-1.843 1.428a6.388 6.388 0 01-2.625.537zm-2.173-8.105h3.455v-.318c-.016-.79-.147-1.387-.39-1.794-.245-.407-.668-.61-1.27-.61-.603 0-1.042.215-1.319.646-.268.432-.427 1.123-.476 2.076zm12.964 2.978l1.672-8.325h3.602L99.353 19h-3.296L92.42 5.792h3.614l1.672 8.325zM108.228 19h-3.467V5.792h3.467V19zm-3.626-16.626c0-.537.171-.977.513-1.318.342-.342.797-.513 1.367-.513s1.025.17 1.367.513c.342.341.513.78.513 1.318 0 .529-.171.968-.513 1.318-.334.35-.789.525-1.367.525s-1.038-.175-1.379-.525c-.334-.35-.501-.789-.501-1.318zm11.072 14.001c1.001 0 1.509-.65 1.526-1.953h3.247c-.016 1.44-.46 2.604-1.331 3.492-.871.887-1.994 1.33-3.369 1.33-1.701 0-2.999-.529-3.894-1.587-.895-1.058-1.351-2.616-1.367-4.675v-1.05c0-2.075.439-3.658 1.318-4.748.887-1.09 2.193-1.636 3.919-1.636 1.456 0 2.604.452 3.442 1.355.838.895 1.266 2.169 1.282 3.82H117.2c-.008-.74-.131-1.31-.367-1.708-.236-.4-.626-.599-1.171-.599-.603 0-1.034.216-1.294.647-.261.424-.399 1.25-.415 2.478v1.343c0 1.075.053 1.827.158 2.259.106.423.281.736.525.94.244.195.59.293 1.038.293zm12.06 2.87c-1.774 0-3.157-.53-4.15-1.588-.993-1.058-1.489-2.571-1.489-4.54v-1.05c0-2.084.455-3.691 1.367-4.822.911-1.132 2.218-1.697 3.918-1.697 1.661 0 2.91.533 3.748 1.599.838 1.058 1.265 2.629 1.282 4.712v1.697h-6.873c.049.976.265 1.692.647 2.148.383.448.973.671 1.77.671 1.156 0 2.12-.394 2.893-1.184l1.355 2.088c-.423.586-1.037 1.062-1.843 1.428a6.392 6.392 0 01-2.625.537zm-2.172-8.106h3.454v-.318c-.016-.79-.146-1.387-.391-1.794-.244-.407-.667-.61-1.269-.61-.602 0-1.042.215-1.318.646-.269.432-.428 1.123-.476 2.076z" fill="#fff"/></svg>
